Hatter-kde/actions/16/format-text-underline.svg

<?xml version="1.0" encoding="UTF-8"?>
<svg viewBox="0 0 16 16" xmlns="http://www.w3.org/2000/svg">
 <defs id="defs3051">
  <style id="current-color-scheme" type="text/css">.ColorScheme-Text {
        color:#363636;
      }</style>
 </defs>
 <path class="ColorScheme-Text" d="m4 2v2 1 4c0 1.6568 1.567 3 3.5 3s3.5-1.3432 3.5-3v-5-2h-1v2 2.9062 2.0938c0 1.1046-0.89543 2-2 2s-2-0.89543-2-2v-2.6875-1.3125-1-2h-2zm-2 11v1h12v-1h-12z" fill="currentColor"/>
</svg>

<svg xmlns="http://www.w3.org/2000/svg" viewBox="0 0 16 16">
  <defs id="defs3051">
    <style type="text/css" id="current-color-scheme">
      .ColorScheme-Text {
        color:#363636;
      }
      </style>
  </defs>
 <path style="fill:currentColor;fill-opacity:1;stroke:none" 
       d="M 4 2 L 4 4 L 4 5 L 4 9 C 4 10.65685 5.567 12 7.5 12 C 9.433 12 11 10.65685 11 9 L 11 4 L 11 2 L 10 2 L 10 4 L 10 6.90625 L 10 9 C 10 10.10457 9.10457 11 8 11 C 6.89543 11 6 10.10457 6 9 L 6 6.3125 L 6 5 L 6 4 L 6 2 L 4 2 z M 2 13 L 2 14 L 14 14 L 14 13 L 2 13 z "
     class="ColorScheme-Text"
     />
</svg>
